src/assets/icons/icon-facebook.svg

<svg width="39" height="39" viewBox="0 0 39 39" fill="none" xmlns="http://www.w3.org/2000/svg">
<rect x="0.5" y="0.5" width="37.3721" height="37.3721" rx="18.686" fill="#2D9CDB" stroke="#2D9CDB"/>
<path d="M23.5461 10.4651H20.9299C19.7734 10.4651 18.6643 10.9245 17.8466 11.7422C17.0288 12.56 16.5694 13.6691 16.5694 14.8256V17.4418H13.9531V20.9302H16.5694V27.9069H20.0578V20.9302H22.6741L23.5461 17.4418H20.0578V14.8256C20.0578 14.5943 20.1497 14.3724 20.3132 14.2089C20.4768 14.0453 20.6986 13.9535 20.9299 13.9535H23.5461V10.4651Z" fill="white"/>
</svg>

<svg width="39" height="39" fill="none" xmlns="http://www.w3.org/2000/svg"><rect x=".5" y=".5" width="37.372" height="37.372" rx="18.686" fill="#2D9CDB" stroke="#2D9CDB"/><path d="M23.546 10.465H20.93a4.36 4.36 0 0 0-4.36 4.36v2.617h-2.617v3.488h2.616v6.977h3.489V20.93h2.616l.872-3.488h-3.488v-2.616a.872.872 0 0 1 .872-.873h2.616v-3.488Z" fill="#fff"/></svg>
